Obsidian/actions/16s/align-vertical-top.svg

<svg height="16" viewBox="0 0 16 16" width="16" xmlns="http://www.w3.org/2000/svg"><path d="m1 2v2h1v10h4v-10h4v10h4v-10h1v-2z" fill="#bebebe"/></svg>

<svg xmlns="http://www.w3.org/2000/svg" width="16" height="16" viewBox="0 0 16 16">
 <defs>
  <style id="current-color-scheme" type="text/css">
   .ColorScheme-Text { color:#bebebe; } .ColorScheme-Highlight { color:#4285f4; }
  </style>
 </defs>
 <path style="fill:currentColor" class="ColorScheme-Text" d="M 1 2 L 1 4 L 2 4 L 2 14 L 6 14 L 6 4 L 10 4 L 10 14 L 14 14 L 14 4 L 15 4 L 15 2 L 1 2 z"/>
</svg>
